X:133
T:There Was A Lad
R:Reel
M:4/4
L:1/8
Q:116
K:D
|: A2 | "D" D2 D2 A2 D2 | "A" F2 E2 E2 FE | "D" D2 D2 A2 DE | "D" F2 d2A3A|!
"G" BcdA "D" F2 AF | "Em" BAGF "A" E2 FE| "D" D2 d2 "A" ABAG |"D" F2 D2D2 :|!
|: A2  | "D" d2 d2 "Bm" d2 fd | "Em" e2 ef "A" e2 dB| "D" ABde defe |!
"D" d2 A2 "A" B2 A2 | "G" BcdA "D"  F2 AF | "Em" BAGF "A" E2 FE | "D" D2 d2 "A" ABAG| "D" F2 D2 D2 :|
